dist/images/book.svg

<svg width="32" height="32" fill="none" xmlns="http://www.w3.org/2000/svg"><path d="M32 26.375h-3.75V0h-8v2.5h-3V0h-8v5h-5.5v21.375H0v2.5h2.5V32H5v-3.125h22V32h2.5v-3.125H32v-2.5zM17.25 9.937h3v11.438h-3V9.937zm3-4.937v2.438h-3V5h3zm-11 2.5v2.438h-3V7.5h3zm-3 18.875V12.437h3v13.938h-3zm5.5 0V2.5h3v23.875h-3zm5.5 0v-2.5h3v2.5h-3zm5.5 0V2.5h3v23.875h-3z" fill="#0094FF"/></svg>

<svg width="32" height="32" viewBox="0 0 32 32" fill="none" xmlns="http://www.w3.org/2000/svg">
<path d="M32 26.375H28.25V0H20.25V2.5H17.25V0H9.25V5H3.75V26.375H0V28.875H2.5V32H5V28.875H27V32H29.5V28.875H32V26.375ZM17.25 9.9375H20.25V21.375H17.25V9.9375ZM20.25 5V7.4375H17.25V5H20.25ZM9.25 7.5V9.9375H6.25V7.5H9.25ZM6.25 26.375V12.4375H9.25V26.375H6.25ZM11.75 26.375V2.5H14.75V26.375H11.75ZM17.25 26.375V23.875H20.25V26.375H17.25ZM22.75 26.375V2.5H25.75V26.375H22.75Z" fill="#0094FF"/>
</svg>
